X:0397
T:The Sutors of Selkirk.
N:really in 9/8
M:3/4
L:1/8
Q:3/4=120 "Brisk"
I: :: ::
Z:Jack Campin * www.campin.me.uk * 2009
K:G
G2|:Bcd2e2|d2B2g2|    edcBAG |\
    Bcd2e2|d2B2g2|   Tf4  A2 |
    Bcd2e2|d2B2g2|    edcBAG |\
    c3 de2|d2B2g2|   Tf4  A2:|
    g2G2B2|g2agfe|    d2cBAG |\
    g2G2B2|g2agfe| {e}f4  A2 |
    g2G2B2|g2agfe|    dgdBAG |\
    c3 de2|d2B2g2|{g}Tf4  A2:|

